X: 0
T: St. Helena
Z: B. Milgrave (Mount Ephraim), 1769
Z: Copyright © 2006 by Douglas D. Anderson
Z: Released To The Public Domain
L: 1/4
M: none
Q: 1/4=340
V: P1 name="Church Organ"
%%MIDI program 1 19
V: P2 name="French Horn"
%%MIDI program 2 60
V: P3 name="Trombone"
%%MIDI program 3 57
V: P4 name="Tuba"
%%MIDI program 4 58
K: E
[V: P1]  E2 | G2 E2 F2 F2 | E6 B2 | d2 B2 c2 c2 | B6 A2 | G2 E2 c2 B2 | c2 d2 e2 c2 | B2 A2 G2 F2 | E6|]
w: Glo- ry, to Thee, O Lord, Who from this world of sin, By cru- el He- rod's ruth- less sword Those pre- cious ones didst win.
[V: P2]  B,2 | E2 E2 E2 D2 | E6 F2 | F2 F2 G2 F2 | D6 F2 | E2 E2 E2 E2 | E2 A2 G2 (E F) | G2 F2 E2 D2 | E6|]
[V: P3]  G,2 | B,2 B,2 C2 B,2 | G,6 B,2 | B,2 B,2 B,2 ^A,2 | B,6 B,2 | B,2 B,2 A,2 B,2 | A,2 A,2 B,2 (C D) | E2 C2 B,3 A, | G,6|]
[V: P4]  E,2 | E,2 G,2 A,2 B,2 | E,6 D,2 | B,,2 D,2 E,2 F,2 | B,,6 D,2 | E,2 G,2 A,2 G,2 | A,2 F,2 E,2 A,,2 | G,,2 A,,2 B,,2 B,,2 | E,6|]

